X: 31
T: Once a Night
%%VWML:Thompsons1774-3047-p16-0
F:http://www.vwml.org/record/Thompsons1774/3047/p16
M: 6/8
L: 1/8
Z: 2010 John Chambers <jc:trillian.mit.edu>
B: Charles & Samuel Thompson eds "Twenty Four Country Dances", London 1774, p.16 #1 
K: F
%-------------------------
|: f2g afc | Acf Bdf | cba gfe | fcB AGF |\
f2g afc | Acf Bdf | cba gfe | f3 F3 :|
|: Tc=Bc GFE | F=Bd fga | gec c=Bc | d=BG TG3 |\
c=BA GFE | DF=B dfa | gec fd=B | c3 C3 | c3 Acf | d3 Bdf | cef gab | agf edc |\
c3 Acf | d3 Bdf | cbg ece | f3 F3 :|
% - - - - - - - - Dance description - - - - - - - -
%%begintext align
%% Cast off & hands 4 round with the 3d Cu. .|. cast up & hands 
%% 4 round at top :|. figure down contrary sides then on your 
%% own sides .|: lead down 2 Cu. & cast up lead thro' the top 
%% & cast up :|:
%%endtext
T: the Dove House 
R: reel
M: C|
L: 1/8
Z: 2011 John Chambers <jc:trillian.mit.edu>
B: Charles & Samuel Thompson eds "Twenty Four Country Dances", London 1774, p.16 #2 
K: A
%-------------------------
E2 | AEcA ecaf | ecBA GBGE | AEcA ecaf | edcB A2 :|
|: A2 | BEGB dgbd | cAce aecA | BEGB ((3cde) ((3fga) | edcB A2 :| 
% - - - - - - - - Dance description - - - - - - - -
%%begintext align
%% Cast off 2 Cu. .|. lead up and cast
%% off :|. hands 4 at bottom .|: Right
%% & Left at top :|:
%%endtext
